lib/flags/mr-mauritania.svg

<svg xmlns="http://www.w3.org/2000/svg" fill="none" aria-hidden="true" viewBox="0 0 42 30"><g id="Country=MR - Mauritania, Size=sm (36x24)" filter="url(#filter0_dd_91_26366)"><g clip-path="url(#clip0_91_26366)"><g id="flag"><mask id="mask0_91_26366" width="36" height="24" x="3" y="2" maskUnits="userSpaceOnUse" style="mask-type:alpha"><rect id="mask" width="36" height="24" x="3" y="2" fill="white"/></mask><g mask="url(#mask0_91_26366)"><g id="contents"><path id="background" fill="#1C7B4D" fill-rule="evenodd" d="M3 2V26H39V2H3Z" clip-rule="evenodd"/><mask id="mask1_91_26366" width="36" height="24" x="3" y="2" maskUnits="userSpaceOnUse" style="mask-type:alpha"><path id="background_2" fill="white" fill-rule="evenodd" d="M3 2V26H39V2H3Z" clip-rule="evenodd"/></mask><g mask="url(#mask1_91_26366)"><path id="top" fill="#E31D1C" fill-rule="evenodd" d="M3 2V8H39V2H3Z" clip-rule="evenodd"/><path id="bottom" fill="#E31D1C" fill-rule="evenodd" d="M3 20V26H39V20H3Z" clip-rule="evenodd"/><g id="mark"><path id="Shape sp-1695-0" fill="#FECA00" fill-rule="evenodd" d="M21.2723 16.3787C27.1057 16.4075 28.7486 12.0653 28.7486 12.0653C28.4182 15.7801 26.1067 18.2993 21.2723 18.2993C16.4378 18.2993 14.6626 15.0361 13.7959 11.781C13.7959 11.781 15.4388 16.35 21.2723 16.3787Z" clip-rule="evenodd"/><path id="Star 17" fill="#FECA00" fill-rule="evenodd" d="M22.8418 11.8138L23.2206 13.7773L21.2369 12.8503L19.2531 13.7773L19.6319 11.8138L18.027 10.28L20.245 10.28L21.2369 8.35025L22.2287 10.28L24.4467 10.28L22.8418 11.8138Z" clip-rule="evenodd"/></g></g></g></g></g></g></g><defs><filter id="filter0_dd_91_26366" width="42" height="30" x="0" y="0" color-interpolation-filters="sRGB" filterUnits="userSpaceOnUse"><feFlood flood-opacity="0" result="BackgroundImageFix"/><feColorMatrix in="SourceAlpha" result="hardAlpha" values="0 0 0 0 0 0 0 0 0 0 0 0 0 0 0 0 0 0 127 0"/><feOffset dy="1"/><feGaussianBlur stdDeviation="1"/><feColorMatrix values="0 0 0 0 0.0627451 0 0 0 0 0.0941176 0 0 0 0 0.156863 0 0 0 0.06 0"/><feBlend in2="BackgroundImageFix" result="effect1_dropShadow_91_26366"/><feColorMatrix in="SourceAlpha" result="hardAlpha" values="0 0 0 0 0 0 0 0 0 0 0 0 0 0 0 0 0 0 127 0"/><feOffset dy="1"/><feGaussianBlur stdDeviation="1.5"/><feColorMatrix values="0 0 0 0 0.0627451 0 0 0 0 0.0941176 0 0 0 0 0.156863 0 0 0 0.1 0"/><feBlend in2="effect1_dropShadow_91_26366" result="effect2_dropShadow_91_26366"/><feBlend in="SourceGraphic" in2="effect2_dropShadow_91_26366" result="shape"/></filter><clipPath id="clip0_91_26366"><rect width="36" height="24" x="3" y="2" fill="white" rx="2"/></clipPath></defs></svg>

<svg xmlns="http://www.w3.org/2000/svg" fill="none" aria-hidden="true" viewBox="0 0 42 30"><g filter="url(#a)"><g clip-path="url(#b)"><mask id="c" width="36" height="24" x="3" y="2" maskUnits="userSpaceOnUse" style="mask-type:alpha"><path fill="#fff" d="M3 2h36v24H3z"/></mask><g mask="url(#c)"><path fill="#1C7B4D" fill-rule="evenodd" d="M3 2v24h36V2H3Z" clip-rule="evenodd"/><mask id="d" width="36" height="24" x="3" y="2" maskUnits="userSpaceOnUse" style="mask-type:alpha"><path fill="#fff" fill-rule="evenodd" d="M3 2v24h36V2H3Z" clip-rule="evenodd"/></mask><g fill-rule="evenodd" clip-rule="evenodd" mask="url(#d)"><path fill="#E31D1C" d="M3 2v6h36V2H3Zm0 18v6h36v-6H3Z"/><g fill="#FECA00"><path d="M21.272 16.379c5.834.028 7.477-4.314 7.477-4.314-.33 3.715-2.642 6.234-7.477 6.234-4.834 0-6.61-3.263-7.476-6.518 0 0 1.643 4.569 7.476 4.598Z"/><path d="m22.842 11.814.379 1.963-1.984-.927-1.984.927.379-1.963-1.605-1.534h2.218l.992-1.93.992 1.93h2.218l-1.605 1.534Z"/></g></g></g></g></g><defs><clipPath id="b"><rect width="36" height="24" x="3" y="2" fill="#fff" rx="2"/></clipPath><filter id="a" width="42" height="30" x="0" y="0" color-interpolation-filters="sRGB" filterUnits="userSpaceOnUse"><feFlood flood-opacity="0" result="BackgroundImageFix"/><feColorMatrix in="SourceAlpha" result="hardAlpha" values="0 0 0 0 0 0 0 0 0 0 0 0 0 0 0 0 0 0 127 0"/><feOffset dy="1"/><feGaussianBlur stdDeviation="1"/><feColorMatrix values="0 0 0 0 0.0627451 0 0 0 0 0.0941176 0 0 0 0 0.156863 0 0 0 0.06 0"/><feBlend in2="BackgroundImageFix" result="effect1_dropShadow_91_26366"/><feColorMatrix in="SourceAlpha" result="hardAlpha" values="0 0 0 0 0 0 0 0 0 0 0 0 0 0 0 0 0 0 127 0"/><feOffset dy="1"/><feGaussianBlur stdDeviation="1.5"/><feColorMatrix values="0 0 0 0 0.0627451 0 0 0 0 0.0941176 0 0 0 0 0.156863 0 0 0 0.1 0"/><feBlend in2="effect1_dropShadow_91_26366" result="effect2_dropShadow_91_26366"/><feBlend in="SourceGraphic" in2="effect2_dropShadow_91_26366" result="shape"/></filter></defs></svg>
